X: 20552
T: The STORM
Q: "Andante"
%R: waltz
B: "Edinburgh Repository of Music" v.2 p.55 #2
F: http://digital.nls.uk/special-collections-of-printed-music/pageturner.cfm?id=87776133
Z: 2015 John Chambers <jc:trillian.mit.edu>
M: 3/4
L: 1/8
K: G
B>d |\
{d}c2 BAGF | G2 A2 B>d | {d}c2 B2 A>F | G4 Bd |\
{d}c2 BAGF | G2 A2 Bd | {d}c2 B2 AF | G2 zBcB |
e2 edcB | {B}A2 A2 BA | {A}G2 FEFG | D4 AB |\
{d}c2 BAdF | (GA/B/) A2 {a}gf/e/ | d2 cBcA | G4 |]

%%sep 2 1 500
%%sep 1 1 500

